icons/op-boards-24.svg

<svg width="24" height="24" viewBox="0 0 24 24" fill="none" xmlns="http://www.w3.org/2000/svg">
<path d="M8.19474 7.22188V20H4V7.22188H8.19474ZM8.19474 4.07162V5.7238H4V4.07165L8.19474 4.07162ZM14.0464 7.18716V12.0032H9.85155V7.18716H14.0464ZM14.0464 4.04305V5.768H9.85155V4.04305H14.0464ZM20 7.27563V16.0872H15.8052V7.27563H20ZM20 4.00003V5.768H15.8052V4.00003H20Z" fill="black"/>
</svg>

<svg xmlns="http://www.w3.org/2000/svg" width="24" height="24" viewBox="0 0 24 24"><path d="M8.195 7.222V20H4V7.222h4.195Zm0-3.15v1.652H4V4.072h4.195Zm5.851 3.115v4.816H9.852V7.187h4.194Zm0-3.144v1.725H9.852V4.043h4.194ZM20 7.276v8.811h-4.195V7.276H20ZM20 4v1.768h-4.195V4H20Z"/></svg>
